!!!COA:	Josquin des Prez
!!!CDT:	~1450-1521/08/27
!!!OPR:	Missa Di dadi
!!!ONM:	5
!!!OTL:	Agnus Dei
!!!AGN:	Mass; Agnus Dei
!!!SCT:	NJE 9.3
!!!SCA:	New Josquin Edition 9.3
!!!voices:	4
!!!voices-OPR:	4
**kern	**kern	**kern	**kern
*staff4	*staff3	*staff2	*staff1
*Ivox	*Ivox	*Ivox	*Ivox
*I"Bassus	*I"Tenor	*I"Altus	*I"Superius
*I'B	*I'T	*I'A	*I'S
*>[A,B,C]	*>[A,B,C]	*>[A,B,C]	*>[A,B,C]
*>A	*>A	*>A	*>A
*clefF4	*clefGv2	*clefGv2	*clefG2
*k[b-]	*k[b-]	*k[b-]	*k[b-]
*	*rscale:1/2	*	*
*M2/1	*M2/1	*M2/1	*M2/1
*met(C|)	*met(O)	*met(C|)	*met(C|)
!!primary-mensuration: met(C|)
!!!OMD: Agnus Dei I
!!section: Agnus Dei I
=1-	=1-	=1-	=1-
1G	0G	0r	1g
2G\	.	.	2.b-\
[2B-\	.	.	.
.	.	.	4a/
=2	=2-	=2	=2
2B-\]	1B-	0r	2f/
4A\	.	.	1g
4G\	.	.	.
1A	1c	.	.
.	.	.	2f#i/
=3	=3-	=3	=3
2G\	0d	2r	1g
2.B-\	.	2G/	.
.	.	1B-	1G
4A\	.	.	.
[2G\	.	.	.
=4	=4	=4	=4
2G\]	1r	1A	1r
2F#i\	.	.	.
1G	1B-	2G/	2r
.	.	[2B-\	2g/
=5	=5-	=5	=5
0r	1G	4B-\]	1b-
.	.	4A/	.
.	.	1G	.
.	1A	.	1a
.	.	2F#i/	.
=6	=6-	=6	=6
2r	0B-	0G	2g/
2G\	.	.	2.b-\
1B-	.	.	.
.	.	.	4a/
.	.	.	[2g/
=7	=7	=7	=7
1A	1c	1r	2g/]
.	.	.	2f#i/
!	!LO:N:vis=1	!	!
1G	[y1d	2r	1g
.	.	2G/	.
=8	=8-	=8	=8
2r	1d]yy	2.B-\	1G
2.B-\	.	.	.
.	.	4c\	.
.	1B-	1d	2r
4A\	.	.	.
2G\	.	.	[2d/
=9	=9-	=9	=9
2F\	0A	0D	2d/]
1G	.	.	2d/
.	.	.	1d
2F#i\	.	.	.
=10	=10	=10	=10
1G	0G	2r	2.B-/
.	.	2G/	.
.	.	.	4c/
2r	.	2.B-\	1d
2GG/	.	.	.
.	.	4c\	.
=11	=11-	=11	=11
1.BB-	0F	2d\	2r
.	.	2D/	1d
.	.	1F	.
[2AA/	.	.	[2c/
=12	=12-	=12	=12
1AA]	1A	2F/	4c/]
.	.	.	4A/
.	.	2E/	2c/
2GG/	1B-	2G/	2B-/
2BB-/	.	2D/	2d/
=13	=13	=13	=13
1AA	1c	2F/	2c/
.	.	2E/	2.e/
1GG	1B-	2G/	.
.	.	.	4d/
.	.	2D/	4g/
.	.	.	4f/
=14	=14-	=14	=14
2r	0G	0E-	4e-i/
.	.	.	4d/
2.B-\	.	.	1d
4A\	.	.	.
2G\	.	.	2c/
=15	=15-	=15	=15
2F\	0A	1D	1d
1G	.	.	.
.	.	2r	2r
2F\	.	2D/	2f/
=16	=16	=16	=16
2G\	0G	1E-i	2e-i/
2.B-\	.	.	2.d/
.	.	1E-i	.
4A\	.	.	4B-/
2G\	.	.	2c/
=17	=17-	=17	=17
2F\	0r	1D	2d/
1G	.	.	2B-/
.	.	2r	1A
2F#i\	.	2D/	.
=18	=18-	=18	=18
0G	0B-	1E-i	1G
.	.	1E-i	2r
.	.	.	2g/
=19	=19	=19	=19
2r	0d	1D	2.b-\
2GG/	.	.	.
.	.	.	4a/
1BB-	.	2r	2f/
.	.	2D/	2g/
=20	=20-	=20	=20
1AA	1c	2E/	2a/
.	.	2F/	2A/
!	!LO:N:vis=1	!	!
1GG	[y1B-	2G/	2B-/
.	.	[2B-\	4G/
.	.	.	4A/
=21	=21-	=21	=21
2r	1B-]yy	4B-\]	4B-/
.	.	4A/	4c/
2.B-\	.	4G/	1d
.	.	4F/	.
.	1G	1E-i	.
4A\	.	.	.
2G\	.	.	2c/
=22	=22	=22	=22
2F\	0A	0D	1d
1G	.	.	.
.	.	.	2r
2F\	.	.	2a/
=23	=23-	=23	=23
2G\	1G	2r	2.b-\
2B-\	.	2.d\	.
.	.	.	4g/
1A	1F	.	2.a/
.	.	4e\	.
.	.	4f\	.
.	.	4d\	4b-\
=24	=24-	=24	=24
1r	0E-	2e-i\	2cc\
.	.	1d	1b-
1G	.	.	.
.	.	2c\	4a/
.	.	.	4g/
=25	=25	=25	=25
1B-	0D	[0d	1f
1A	.	.	1r
=26	=26-	=26	=26
2G\	0G	0d]	0b-
2.B-\	.	.	.
4A\	.	.	.
2G\	.	.	.
=27	=27-	=27	=27
2F\	1r	0D	1a
1G	.	.	.
.	1A	.	1a
2F#i\	.	.	.
=28	=28	=28	=28
0G	0B-	1r	2d/
.	.	.	2.b-\
.	.	1d	.
.	.	.	4a/
.	.	.	[2g/
=29	=29-	=29	=29
0r	1c	1e	2g/]
.	.	.	4f/
.	.	.	4e/
.	1A	2.c\	4f/
.	.	.	4g/
.	.	.	4a/
.	.	4d\	4f/
=30	=30-	=30	=30
1r	0G	2e-i\	0g
.	.	2d\	.
1GG	.	2B-\	.
.	.	[2d\	.
=31	=31	=31	=31
1BB-	0F	1d]	0r
2AA/	.	2c\	.
[2D\	.	[2f\	.
=32	=32-	=32	=32
4D\]	0A	4f\]	0r
4E\	.	4e\	.
2.F\	.	2.c\	.
4E\	.	4d\	.
[2C/	.	[2e-i\	.
=33	=33-	=33	=33
4C/]	0G	4e-\]	0r
4D\	.	4d\	.
2.E-i\	.	2.B-\	.
4D\	.	4c\	.
2BB-/	.	2d\	.
=34	=34	=34	=34
2C/	1E	2G/	0r
1AA	.	2.c\	.
.	1F	.	.
.	.	4A/	.
[2D\	.	[2A/	.
=35	=35-	=35	=35
2D\]	1D	2A/]	0r
1BB-	.	2.d\	.
!	!LO:N:vis=1	!	!
.	[y1G	.	.
.	.	4B-\	.
2GG/	.	[2B-\	.
=36	=36-	=36	=36
2BB-/	1G]yy	2B-\]	0r
2C/	.	2G/	.
2AA/	1F	2A/	.
[2D\	.	[2F/	.
=37	=37	=37	=37
2D\]	1B-	2F/]	0r
2GG/	.	1G	.
2BB-/	1G	.	.
2C/	.	2E/	.
=38	=38-	=38	=38
2AA/	1A	2.F/	0r
1D	.	.	.
.	.	4D/	.
!	!LO:N:vis=1	!	!
.	[y1B-	2D/	.
[2BB-/	.	[2d\	.
=39	=39-	=39	=39
2BB-/]	1B-]yy	4d\]	0r
.	.	4B-\	.
2GG/	.	1B-	.
2BB-/	1G	.	.
2C/	.	2G/	.
=40	=40	=40	=40
!	!LO:N:vis=0	!	!
2AA/	[y0F	1A	1r
1D	.	.	.
.	.	1D	1d
2BB-/	.	.	.
=41	=41-	=41	=41
2AA/	0F]yy	1A	2c/
[1.D	.	.	4f/
.	.	.	4g/
.	.	2r	4a/
.	.	.	4b-\
.	.	2D/	[2a/
=42	=42-	=42	=42
2D\]	0r	2F/	4a/]
.	.	.	4g/
2BB-/	.	2G/	1g
2AA/	.	1A	.
2D\	.	.	2f#i/
=43	=43	=43	=43
2r	0B-	1G	1g
2GG/	.	.	.
2.BB-/	.	[1d	2r
.	.	.	2d/
4C/	.	.	.
=44	=44-	=44	=44
0D	1A	2d\]	2.f/
.	.	4c\	.
.	.	4d\	4g/
.	1F	2A/	2a/
.	.	[2d\	2A/
=45	=45-	=45	=45
1r	0G	2d\]	2.B-/
.	.	2G/	.
.	.	.	4c/
2r	.	2.B-\	4d/
.	.	.	4e-i/
2GG/	.	.	[2d/
.	.	4c\	.
=46	=46	=46	=46
2.BB-/	0F	2d\	2d/]
.	.	2.D/	4c/
4C/	.	.	4B-/
1D	.	.	1A
.	.	4E/	.
.	.	2F/	.
=47	=47-	=47	=47
2r	0B-	4G/	1G
.	.	4D/	.
2GG/	.	2G/	.
2.BB-/	.	2D/	2r
.	.	2G/	2d/
4C/	.	.	.
=48	=48-	=48	=48
0D	1A	2F/	2.f/
.	.	2.A/	.
.	.	.	4g/
.	1F	.	2a/
.	.	4G/	.
.	.	2F/	2A/
=49	=49	=49	=49
1r	1G	1E	2B-/
.	.	.	2c/
!	!LO:N:vis=1	!	!
2r	[y1A	1D	2d/
2D\	.	.	[2f/
=50	=50-	=50	=50
2.F\	1A]yy	2r	4f/]
.	.	.	4g/
.	.	2.F/	4a/
4G\	.	.	4b-\
4A\	1F	.	2.cc\
4B-\	.	4G/	.
[2c\	.	4A/	.
.	.	4B-\	4b-\
=51	=51-	=51	=51
2c\]	0E	2c\	2g/
2B-\	.	2G/	2.b-\
1G	.	2B-\	.
.	.	.	4a/
.	.	2c\	[2g/
=52	=52	=52	=52
1A	1D	1d	2g/]
.	.	.	2f/
!	!LO:N:vis=1	!	!
2r	[y1G	2r	2e/
2GG/	.	2B-\	[2d/
=53	=53-	=53	=53
2BB-/	1G]yy	2d\	2d/]
2C/	.	2e\	4c/
.	.	.	4B-/
1D	1F	2f\	1A
.	.	2F/	.
=54	=54-	=54	=54
1r	0B-	2G/	2r
.	.	2B-\	2G/
2r	.	2G/	2B-/
2G\	.	[2d\	2G/
=55	=55	=55	=55
2B-\	0G	4d\]	1d
.	.	4c\	.
2G\	.	4B-\	.
.	.	4A/	.
1d	.	2G/	2r
.	.	[2B-\	2d/
=56	=56-	=56	=56
2r	1r	2B-\]	2.f/
2D\	.	2A/	.
.	.	.	4g/
1F	1A	2F/	4a/
.	.	.	4b-\
.	.	2A/	2cc\
=57	=57-	=57	=57
1G	1B-	2G/	4b-\
.	.	.	4a/
.	.	2d\	4g/
.	.	.	4f/
1A	1c	2c\	4e/
.	.	.	4d/
.	.	2A/	2e/
=58	=58	=58	=58
2r	0d	1B-	2d/
2.D\	.	.	2.f/
.	.	1A	.
4E\	.	.	4g/
4F\	.	.	4a/
4G\	.	.	4b-\
=59	=59-	=59	=59
2A\	1c	2r	2cc\
2F\	.	2A/	2a/
2G\	1B-	[1d	2d/
[2D\	.	.	[2f/
=60	=60-	=60	=60
4D\]	0A	2d\]	4f/]
4E\	.	.	4g/
4F\	.	2.c\	4a/
4G\	.	.	4b-\
2A\	.	.	2cc\
.	.	4A/	.
2F\	.	2c\	2a/
=61	=61	=61	=61
2G\	0G	2.B-\	2r
2GG/	.	.	1b-
.	.	4A/	.
2BB-/	.	4G/	.
.	.	4F/	.
2C/	.	2E/	2g/
=62	=62-	=62	=62
*	*	*M2/1	*
*	*	*met(3/2)	*
1D	0F	3.D/	2b-\
.	.	6E/	1a
.	.	3F/	.
2r	.	3D/	.
.	.	3F/	.
2BB-/	.	.	2d/
.	.	3D/	.
=63	=63-	=63	=63
2C/	1A	3E/	2c/
.	.	3A/	.
2D\	.	.	2A/
.	.	3F/	.
2BB-/	1B-	3G/	1d
.	.	3B-\	.
2D\	.	.	.
.	.	3F/	.
=64	=64	=64	=64
2E\	1c	3G/	2r
.	.	3c\	.
2F\	.	.	2c/
.	.	3A/	.
2BB-/	1d	3B-\	2B-/
.	.	3G/	.
[2B-\	.	.	2G/
.	.	3d\	.
=65	=65-	=65	=65
4B-\]	1B-	3G/	1.b-
4A\	.	.	.
.	.	3B-\	.
2.G\	.	.	.
.	.	3G/	.
.	1G	3d\	.
4F\	.	.	.
.	.	3B-\	.
2E\	.	.	4a/
.	.	3c\	.
.	.	.	4g/
=66	=66-	=66	=66
2D\	0A	3d\	2f/
.	.	3f\	.
2C/	.	.	1g
.	.	3e\	.
1D	.	3.d\	.
.	.	6c\	2f#i/
.	.	3A/	.
=67	=67	=67	=67
!	!LO:N:vis:00	!	!
0GGl	0Gl	0B-l	0gl
*	*rscale:1	*	*
!!LO:LB:i:g=z
=68||	=68||	=68||	=68||
*>B	*>B	*>B	*>B
*clefF4	*clefGv2	*clefGv2	*clefG2
*k[b-]	*k[b-]	*k[b-]	*k[b-]
*M2/1	*M2/1	*M2/1	*M2/1
*met(C|)	*met(C|)	*met(C|)	*met(C|)
!!!OMD: Agnus Dei II
!!section: Agnus Dei II
[0G	0r	0d	0r
=69	=69	=69	=69
0G]	0r	1e-i	0r
.	.	[1d	.
=70	=70	=70	=70
0G	0r	1d]	0r
.	.	1B-	.
=71	=71	=71	=71
0C	0r	1c	0r
.	.	[1e-i	.
=72	=72	=72	=72
0G	0r	2e-\]	0r
.	.	2d\	.
.	.	[1d	.
=73	=73	=73	=73
0GG	0r	2d\]	0r
.	.	2c\	.
.	.	2.B-\	.
.	.	4A/	.
=74	=74	=74	=74
0D	0r	2B-\	0r
.	.	1A	.
.	.	2F/	.
=75	=75	=75	=75
1E-	0r	2G/	0r
.	.	2.B-\	.
[1D	.	.	.
.	.	4G/	.
.	.	[2A/	.
=76	=76	=76	=76
1D]	0r	2A/]	0r
.	.	2F/	.
1BB-	.	2G/	.
.	.	2B-\	.
=77	=77	=77	=77
1C	0r	2A/	0r
.	.	1G	.
[1E-i	.	.	.
.	.	[2c\	.
=78	=78	=78	=78
2E-\]	0r	2c\]	0r
2D\	.	2.B-\	.
[1D	.	.	.
.	.	4A/	.
.	.	[2A/	.
=79	=79	=79	=79
1D]	0r	2A/]	0r
.	.	1d	.
1F	.	.	.
.	.	2c\	.
=80	=80	=80	=80
1G	0r	2e-i\	0r
.	.	1d	.
[1B-	.	.	.
.	.	2G/	.
=81	=81	=81	=81
2B-\]	0r	2d\	0r
2A\	.	1c	.
[1A	.	.	.
.	.	[2F/	.
=82	=82	=82	=82
1A]	0r	2F/]	0r
.	.	2c\	.
1F	.	2d\	.
.	.	[2f\	.
=83	=83	=83	=83
1G	0r	2f\]	0r
.	.	2e\	.
1B-	.	2d\	.
.	.	[2f\	.
=84	=84	=84	=84
2A\	0r	2f\]	0r
2G\	.	2e\	.
1B-	.	2d\	.
.	.	[2c\	.
=85	=85	=85	=85
2A\	0r	2c\]	0r
1G	.	2B-\	.
.	.	1A	.
2F\	.	.	.
=86	=86	=86	=86
2E\	0r	2G/	0r
2D\	.	2B-\	.
1F	.	2A/	.
.	.	[2c\	.
=87	=87	=87	=87
2E\	0r	2c\]	0r
1D	.	2B-\	.
.	.	1A	.
2C/	.	.	.
=88	=88	=88	=88
2BB-/	0r	1G	0r
1AA	.	.	.
.	.	2F/	.
2GG/	.	[2G/	.
=89	=89	=89	=89
2BB-/	0r	2G/]	0r
2C/	.	2.A/	.
[1D	.	.	.
.	.	4F/	.
.	.	[2B-\	.
=90	=90	=90	=90
1D]	0r	4B-\]	0r
.	.	4A/	.
.	.	2.d\	.
1D	.	.	.
.	.	4c\	.
.	.	[2A/	.
=91	=91	=91	=91
1C	0r	4A/]	0r
.	.	4G/	.
.	.	2.c\	.
[1E-i	.	.	.
.	.	4B-\	.
.	.	[2G/	.
=92	=92	=92	=92
1E-]	0r	4G/]	0r
.	.	4A/	.
.	.	1B-	.
[1D	.	.	.
.	.	2A/	.
=93	=93	=93	=93
2D\]	0r	2F/	0r
2C/	.	2A/	.
2.E-i\	.	2G/	.
.	.	[2B-\	.
4D\	.	.	.
=94	=94	=94	=94
1BB-	0r	1B-]	0r
[1F	.	2A/	.
.	.	[2c\	.
=95	=95	=95	=95
2F\]	0r	1c]	0r
2E-i\	.	.	.
2.G\	.	2B-\	.
.	.	[2d\	.
4F\	.	.	.
=96	=96	=96	=96
1D	0r	1d]	0r
1F	.	2c\	.
.	.	2A/	.
=97	=97	=97	=97
2E-i\	0r	1c	0r
2C/	.	.	.
1E-i	.	2B-\	.
.	.	2G/	.
=98	=98	=98	=98
1D	0r	2B-\	0r
.	.	1A	.
1F	.	.	.
.	.	[2d\	.
=99	=99	=99	=99
2G\	0r	4d\]	0r
.	.	4B-\	.
2.A\	.	4c\	.
.	.	4d\	.
.	.	2e-i\	.
4G\	.	.	.
2B-\	.	2d\	.
=100	=100	=100	=100
2.A\	0r	2f\	0r
.	.	2.e\	.
4G\	.	.	.
2B-\	.	.	.
.	.	4d\	.
[2A\	.	2f\	.
=101	=101	=101	=101
4A\]	0r	2e\	0r
4G\	.	.	.
4F\	.	2.d\	.
4E\	.	.	.
2D\	.	.	.
.	.	4c\	.
[2G\	.	4B-\	.
.	.	4A/	.
=102	=102	=102	=102
2G\]	0r	2G/	0r
2.F\	.	2A/	.
.	.	2c\	.
4E\	.	.	.
2G\	.	[2B-\	.
=103	=103	=103	=103
2.F\	0r	4B-\]	0r
.	.	4A/	.
.	.	2c\	.
4E\	.	.	.
2G\	.	2.B-\	.
[2F\	.	.	.
.	.	4A/	.
=104	=104	=104	=104
4F\]	0r	2c\	0r
4E\	.	.	.
4D\	.	2.B-\	.
4C/	.	.	.
2BB-/	.	.	.
.	.	4A/	.
2C/	.	4G/	.
.	.	4F/	.
=105	=105	=105	=105
2E-i\	0r	2G/	0r
2.D\	.	2B-\	.
.	.	2.A/	.
4C/	.	.	.
2E-\	.	.	.
.	.	4G/	.
=106	=106	=106	=106
2.D\	0r	2B-\	0r
.	.	2.A/	.
4C/	.	.	.
2E-i\	.	.	.
.	.	4G/	.
[2D\	.	[2B-\	.
=107	=107	=107	=107
2D\]	0r	4B-\]	0r
.	.	4A/	.
2C/	.	1A	.
1BB-	.	.	.
.	.	2G/	.
=108	=108	=108	=108
1AA	0r	0A	0r
[1D	.	.	.
=109	=109	=109	=109
2D\]	0r	1r	0r
2E\	.	.	.
1F	.	1A	.
=110	=110	=110	=110
1G	0r	1G	0r
1GG	.	[1B-	.
=111	=111	=111	=111
1.D	0r	2B-\]	0r
.	.	4A/	.
.	.	4G/	.
.	.	1A	.
2E\	.	.	.
=112	=112	=112	=112
1F	0r	1D	0r
1G	.	[1d	.
=113	=113	=113	=113
1GG	0r	2d\]	0r
.	.	2c\	.
[1D	.	2B-\	.
.	.	[2A/	.
=114	=114	=114	=114
2D\]	0r	2A/]	0r
2E\	.	2G/	.
1F	.	2A/	.
.	.	2D/	.
=115	=115	=115	=115
1G	0r	1.d	0r
1GG	.	.	.
.	.	2c\	.
=116	=116	=116	=116
1.D	0r	2B-\	0r
.	.	1A	.
2E\	.	2G/	.
=117	=117	=117	=117
1F	0r	2A/	0r
.	.	2D/	.
1G	.	[1d	.
=118	=118	=118	=118
1GG	0r	2d\]	0r
.	.	2c\	.
2.D\	.	2B-\	.
.	.	[2A/	.
4E\	.	.	.
=119	=119	=119	=119
2F\	0r	2A/]	0r
1G	.	2G/	.
.	.	1A	.
2F#i\	.	.	.
=120	=120	=120	=120
0Gl	0r	0Gl	0r
!!LO:LB:i:g=z
=121||	=121||	=121||	=121||
*>C	*>C	*>C	*>C
*clefF4	*clefGv2	*clefGv2	*clefG2
*k[b-]	*k[b-]	*k[b-]	*k[b-]
*rscale:1/2	*	*	*
*M3/0	*M2/1	*M2/1	*M2/1
*met(O)	*met(C|)	*met(C|)	*met(C|)
!!primary-mensuration: met(C|)
!!!OMD: Agnus Dei III
!!section: Agnus Dei III
0r	0G	0G	0r
=122-	=122	=122	=122
0r	1B-	1G	0r
.	1c	1E	.
=123-	=123	=123	=123
0r	0d	0D	0r
=124	=124	=124	=124
0r	1r	1.d	0G
.	1B-	.	.
.	.	2c\	.
=125-	=125	=125	=125
0r	1G	2B-\	1B-
.	.	2B-\	.
.	1A	1A	1c
=126-	=126	=126	=126
0r	0B-	0G	1.d
.	.	.	2e/
=127	=127	=127	=127
0D	0A	1F	2f/
.	.	.	2g/
.	.	[1f	[1a
=128-	=128	=128	=128
1F	0r	2f\]	1a]
.	.	2e\	.
1G	.	1d	1b-
=129-	=129	=129	=129
0A	1r	1c	1.cc
.	1F	1f	.
.	.	.	2a/
=130	=130	=130	=130
1r	1G	2e\	1b-
.	.	1d	.
1F	1A	.	[1a
.	.	2c\	.
=131-	=131	=131	=131
1D	0B-	2d\	2a/]
.	.	2f\	2f/
1E	.	2.e\	1g
.	.	4d\	.
=132-	=132	=132	=132
0F	1A	2c\	0a
.	.	2B-\	.
.	[1d	1A	.
=133	=133	=133	=133
1G	1d]	1B-	1r
!LO:N:vis=1	!	!	!
[y1A	1c	1F	[1cc
=134-	=134	=134	=134
1A]yy	1A	0c	2cc\]
.	.	.	2b-\
1F	[1c	.	2.a/
.	.	.	4g/
=135-	=135	=135	=135
0E	2c\]	1r	2a/
.	2B-\	.	1g
.	1G	1c	.
.	.	.	4f/
.	.	.	4e/
=136	=136	=136	=136
0D	1.A	2.d\	0f
.	.	4e\	.
.	.	2f\	.
.	2B-\	2d\	.
=137-	=137	=137	=137
0C	[0c	1.e	1r
.	.	.	[1cc
.	.	2f\	.
=138-	=138	=138	=138
1E	0c]	1g	2cc\]
.	.	.	2b-\
1F	.	1f	2.a/
.	.	.	4g/
=139	=139	=139	=139
1G	1B-	1d	1b-
1F	1c	[1f	[1a
=140-	=140	=140	=140
0D	0d	2f\]	1a]
.	.	2e\	.
.	.	[1d	[1b-
=141-	=141	=141	=141
0E	0G	1d]	2b-\]
.	.	.	4a/
.	.	.	4g/
.	.	1c	[1g
=142	=142	=142	=142
0D	0A	[0d	1g]
.	.	.	1f
=143-	=143	=143	=143
0r	0G	0d]	1g
.	.	.	1b-
=144-	=144	=144	=144
0F	0D	1r	0a
.	.	1f	.
=145	=145	=145	=145
0A	1r	1e	0cc
.	1A	1c	.
=146-	=146	=146	=146
1G	1B-	1d	1b-
1F	1c	[1f	[1a
=147-	=147	=147	=147
0D	0d	2f\]	2a/]
.	.	2e\	2g/
.	.	2d\	[1b-
.	.	2c\	.
=148	=148	=148	=148
0E-i	0G	1B-	2b-\]
.	.	.	2a/
.	.	1c	1g
=149-	=149	=149	=149
1D	0A	2d\	1f
.	.	2D/	.
1C	.	1E	[1e
=150-	=150	=150	=150
0BB-	0D	1F	2e/]
.	.	.	2d/
.	.	1G	[1d
=151	=151	=151	=151
0AA	0E	1A	1d]
.	.	2r	1c#i
.	.	[2A/	.
=152-	=152	=152	=152
0D	1D	4A/]	1d
.	.	4F/	.
.	.	2B-\	.
.	1d	1A	1f
=153-	=153	=153	=153
1r	1B-	0G	1g
1E	[1c	.	1g
=154	=154	=154	=154
0F	2c\]	1r	1a
.	4B-\	.	.
.	4c\	.	.
.	[1d	1A	1a
=155-	=155	=155	=155
1G	1d]	1B-	1d
1E	1G	1c	1g
=156-	=156	=156	=156
0D	1.A	0d	1f
.	.	.	[1a
.	2B-\	.	.
=157	=157	=157	=157
0C	1.c	1e-i	2a/]
.	.	.	2g/
.	.	[1c	[1g
.	2B-\	.	.
=158-	=158	=158	=158
0E-	1G	2c\]	2g/]
.	.	2B-\	1b-
.	[1B-	1G	.
.	.	.	4a/
.	.	.	4g/
=159-	=159	=159	=159
0D	2B-\]	1d	1b-
.	2A/	.	.
.	1F	2r	1a
.	.	[2d\	.
=160	=160	=160	=160
1BB-	1.G	4d\]	2r
.	.	4c\	.
.	.	2d\	2d/
1C	.	2.c\	2.e/
.	[2A/	.	.
.	.	4B-\	4d/
=161-	=161	=161	=161
1AA	1A]	2c\	2e/
.	.	2.A/	1f
!LO:N:vis=1	!	!	!
[y1D	2F/	.	.
.	.	4F/	.
.	[2A/	[2F/	4e/
.	.	.	4d/
=162-	=162	=162	=162
1D]yy	2A/]	4F/]	1f
.	.	4E/	.
.	2B-\	2F/	.
1C	[1c	2G/	1e
.	.	[2A/	.
=163	=163	=163	=163
1F	2c\]	2A/]	2r
.	4B-\	2F/	1a
.	4c\	.	.
1D	1d	1f	.
.	.	.	2b-\
=164-	=164	=164	=164
1E	2B-\	1e	2g/
.	2c\	.	2.cc\
1F	2A/	2c\	.
.	.	.	4b-\
.	[2d\	[2f\	4a/
.	.	.	4g/
=165-	=165	=165	=165
0D	2d\]	4f\]	2f/
.	.	4e\	.
.	2B-\	4d\	1g
.	.	4c\	.
.	1A	1d	.
.	.	.	2f#i/
=166	=166	=166	=166
!LO:N:vis=0	!	!	!
[y0C	1r	1e	0g
.	1c	1r	.
=167-	=167	=167	=167
0C]yy	1c	[0e	1r
.	1c	.	1g
=168-	=168	=168	=168
0r	1c	1e]	1g
.	1c	1e	1g
=169	=169	=169	=169
0F	2.A/	2f\	1a
.	.	2F/	.
.	4B-\	.	.
.	2c\	2.A/	1a
.	2d\	.	.
.	.	4B-\	.
=170-	=170	=170	=170
1E	2G/	2c\	2.g/
.	2.c\	2G/	.
.	.	.	4f/
1C	.	1c	2g/
.	4B-\	.	.
.	4A/	.	[2a/
.	4G/	.	.
=171-	=171	=171	=171
0D	0F	1A	4a/]
.	.	.	4g/
.	.	.	1f
.	.	2r	.
.	.	2A/	4e/
.	.	.	4d/
=172	=172	=172	=172
0C	2r	2.c\	0e
.	2c\	.	.
.	.	4d\	.
.	2c\	1e	.
.	2c\	.	.
=173-	=173	=173	=173
0F	2.A/	2f\	0r
.	.	2F/	.
.	4B-\	.	.
.	2c\	2.A/	.
.	2d\	.	.
.	.	4B-\	.
=174-	=174	=174	=174
1E-i	2G/	4c\	0r
.	.	4B-\	.
.	2.c\	2.e-\	.
1C	.	.	.
.	4B-\	4d\	.
.	4A/	4c\	.
.	4G/	4B-\	.
=175	=175	=175	=175
1D	1F	1A	0r
!LO:N:vis=1	!	!	!
[y1E-i	1G	2G/	.
.	.	2C/	.
=176-	=176	=176	=176
1E-]yy	2r	2.G/	0r
.	1G	.	.
.	.	4F/	.
1C	.	2E/	.
.	[2A/	2C/	.
=177-	=177	=177	=177
0BB-	2A/]	1D	1r
.	2F/	.	.
.	1G	2r	1d
.	.	2D/	.
=178	=178	=178	=178
1AA	1A	2E/	1c
.	.	1F	.
!LO:N:vis=1	!	!	!
[y1D	2r	.	2d/
.	[2A/	4E/	[2f/
.	.	4D/	.
=179-	=179	=179	=179
1D]yy	2A/]	1F	2f/]
.	2B-\	.	4e/
.	.	.	4d/
1C	[1c	2G/	1e
.	.	[2A/	.
=180-	=180	=180	=180
0F	2c\]	2A/]	1A
.	2d\	2D/	.
.	2c\	2A/	[1a
.	[2d\	[2D/	.
=181	=181	=181	=181
0D	2d\]	2D/]	1a]
.	4c\	2.d\	.
.	4B-\	.	.
.	2A/	.	1f
.	.	4c\	.
.	[2B-\	2d\	.
=182-	=182	=182	=182
1r	4B-\]	2.B-\	2g/
.	4G/	.	.
.	1G	.	1b-
.	.	4G/	.
1E	.	1G	.
.	[2c\	.	4a/
.	.	.	4g/
=183-	=183	=183	=183
1F	2c\]	2r	1a
.	2A/	1d	.
1G	2B-\	.	1d
.	2G/	2B-\	.
=184	=184	=184	=184
0A	1F	2d\	1r
.	.	2.c\	.
.	2r	.	1a
.	.	4A/	.
.	2F/	2c\	.
=185-	=185	=185	=185
1G	2G/	2B-\	1b-
.	2B-\	2G/	.
1F	2A/	2.c\	2.cc\
.	[2c\	.	.
.	.	4d\	4b-\
=186-	=186	=186	=186
0E-i	4c\]	2.e-i\	2.g/
.	4B-\	.	.
.	2.G/	.	.
.	.	4d\	4a/
.	.	2B-\	2.b-\
.	4A/	.	.
.	[2B-\	2G/	.
.	.	.	4g/
=187	=187	=187	=187
0D	4B-\]	2.d\	2.f/
.	4A/	.	.
.	2.F/	.	.
.	.	4c\	4g/
.	.	2A/	2.a/
.	4G/	.	.
.	[2A/	2F/	.
.	.	.	4g/
=188-	=188	=188	=188
0C	2A/]	1.c	1e
.	1G	.	.
.	.	.	2r
.	2c\	4B-\	2g/
.	.	4A/	.
=189-	=189	=189	=189
1E	2B-\	2G/	2g/
.	2c\	2g\	2g/
1F	2A/	2.f\	1a
.	[2d\	.	.
.	.	4e\	.
=190	=190	=190	=190
1G	2d\]	4d\	1b-
.	.	4c\	.
.	2B-\	2d\	.
1A	2c\	2c\	1a
.	[2A/	2F/	.
=191-	=191	=191	=191
1F	2A/]	2A/	2r
.	1d	2D/	2f/
1D	.	1d	2f/
.	[2B-\	.	2f/
=192-	=192	=192	=192
0E-i	2B-\]	1B-	2.g/
.	1G	.	.
.	.	.	4a/
.	.	1G	2.b-\
.	[2B-\	.	.
.	.	.	4a/
=193	=193	=193	=193
!LO:N:vis=00	!	!	!
[0Dl	2B-\]	0d	2.f/
.	1A	.	.
.	.	.	4g/
.	.	.	2a/
.	[2B-\	.	2d/
=194-	=194	=194	=194
0D_	2B-\]	2r	2.f/
.	1A	2D/	.
.	.	.	4g/
.	.	2.F/	2a/
.	2D/	.	2b-\
.	.	4G/	.
=195-	=195	=195	=195
0D_	2.F/	2A/	2a/
.	.	2B-\	2d/
.	4G/	.	.
.	2A/	2A/	2.f/
.	2B-\	2D/	.
.	.	.	4g/
=196	=196	=196	=196
0D_	2A/	2.F/	2a/
.	2D/	.	2b-\
.	.	4G/	.
.	2.F/	2A/	2a/
.	.	2B-\	2d/
.	4G/	.	.
=197-	=197	=197	=197
0D_	2A/	2A/	2.f/
.	2B-\	2.d\	.
.	.	.	4g/
.	2A/	.	2a/
.	.	4c\	.
.	[2d\	[2f\	2b-\
=198-	=198	=198	=198
0D]	2d\]	4f\]	4a/
.	.	4e\	4g/
.	2B-\	4d\	1g
.	.	4c\	.
.	1A	1d	.
.	.	.	2f#i/
=199	=199	=199	=199
!LO:N:vis=00	!	!	!
0GGl	0Gl	0dl	0gl
*rscale:1	*	*	*
==	==	==	==
*-	*-	*-	*-
!!!RDF**kern: l=long note in original notation
!!!RDF**kern: i=editorial accidental
!!!ENC:	Jesse Rodin; Victoria Chang 2012/01/28
!!!END:	2012/01/28/
!!!EED:	Jesse Rodin
!!!EEV:	2013/10/25/
!!attribution-level@Jos: 3 (tricky)
!!!ONB:	Translated from MusicXML and edited on 2012/03/22/ by Craig Sapp
!!muse2ps: T^@{OPR}^u^@{ONM}{. }@{OTL}^C^@{COA}?\n@{SCT}^i2I150v85,85,85,150Q16
